X:1
T:Title
%%score 1 2
L:1/8
Q:1/4=280
M:3/4
K:Db
V:1 treble nm="rh"
V:2 bass nm="lh"
V:1
 A2 =GA cB | =GA BA cB | =GA cB GA | cB =GA cB | =GA cB GA | cB =GA cB | =GA cB GA | Bc de fg | %8
 b2- ba gf | fe e=d e2 | b2- ba gf | fe =de fB | =GA cB GA | cB =GA cB | =GA cB GA | Bc de fg | %16
 b2- ba gf | fe e=d e2 | b2- ba gf | ef e=d e=e | f[fg] =ef ag | fg f=e fb | a[ab] =ga c'b | %23
 ab a=g ad' | c'b ag fe | dc BA GF | ED CE BA | =GA Bc de | f[fg] [E-F-=e][EFf] [E-F-a][EFg] | %29
 fg [D-F-f][DF=e] [D-F-f][DFb] | a[ab] [G-A-=g][GAa] [G-A-c'][GAb] | ab [F-A-a][FA=g] af' | %32
 e'd' [D-E-B-c'][DEBb] ag | fe dc BA | __Bc _BF GC | D2 z2 f2 | f[fg] =ef ag | fg f=e fb | %38
 a[ab] =ga c'b | ab a=g ad' | c'b ag fe | dc BA GF | ED CE BA | =GA Bc de | %44
 f[fg] [E-F-=e][EFf] [E-F-a][EFg] | fg [D-F-f][DF=e] [D-F-f][DFb] | %46
 a[ab] [G-A-=g][GAa] [G-A-c'][GAb] | ab [F-A-a][FA=g] af' | e'd' [D-E-B-c'][DEBb] ag | fe dc BA | %50
 __Bc _BF GC | D2 z2 A2- | A4 E2 | A4 _F2 | A4 F2 | f4 f2- | f4 B2 | f4 c2 | e4 d2 | %59
 c2 e-[d-e] dB- | [A-B] A2- A E2 | A4 _F2 | A4 F2 | f4- f2 | c2 =B2 c2 | a2 B2 =g2 | =A2 g2 _A2 | %67
 f2 F2 B2 | A4 E2 | [A-a] A2- A _F2 | [A-a] A2- A F2 | [f-a] f2- f f2 | [f-a] f2- f B2 | %73
 [f-a] f2- f c2 | [e-a]e d2 c2 | [e-a]e d2- dB | [A-a] A2- A E2 | [A-a] A2- A _F2 | %78
 [A-a] A2- A F2 | f4- f2 | f4 B2 | e4 =A2 | e2 A2 =d2 | f2 e2 a2 | A4- A2- | A4- A2- | A4- A2- | %87
 A4- A2 | =GA cB GA | cB =GA cB | =GA cB GA | cB =GA cB | =GA cB GA | cB =GA cB | =GA cB GA | %95
 Bc de fg | b2- ba gf | fe e=d e2 | b2- ba gf | fe =de f=B | =GA cB GA | cB =GA cB | =GA cB GA | %103
 Bc de fg | b2- ba gf | fe e=d e2 | b2- ba gf | ef e=d e=e | f[fg] =ef ag | fg f=e fb | %110
 a[ab] =ga c'b | ab a=g ad' | c'b ag fe | dc BA GF | ED CE BA | =GA Bc de | %116
 f[fg] [E-F-=e][EFf] [E-F-a][EFg] | fg [D-F-f][DF=e] [D-F-f][DFb] | %118
 a[ab] [G-A-=g][GAa] [G-A-c'][GAb] | ab [F-A-a][FA=g] af' | e'd' [D-E-B-c'][DEBb] ag | fe dc BA | %122
 __Bc _BF GC | D2 z2 f2- | f[fg] =ef ag | fg f=e fb | a[ab] =ga c'b | ab a=g ad' | c'b ag fe | %129
 dc BA GF | ED CE BA | =GA Bc de | f[fg] [E-F-=e][EFf] [E-F-a][EFg] | %133
 fg [D-F-f][DF=e] [D-F-f][DFb] | a[ab] [G-A-=g][GAa] [G-A-c'][GAb] | ab [F-A-a][FA=g] af'' | %136
 e''d'' [b'c'']a' g'[e'f'] | d'c' [ab]g f[de] | cB [=Ac]B F[CG] | D4 z2 |] %140
V:2
 z2 z4 | z2 z4 | z2 z4 | z2 z4 | D,2 [A,DF]2 [A,DF]2 | F,2 [A,DF]2 [A,DF]2 | D,2 [A,DF]2 [A,DF]2 | %7
 F,2 [A,DF]2 [A,DF]2 | A,,2 [A,CG]2 [A,CG]2 | E,2 [A,CG]2 [A,CG]2 | A,,2 [CG]2 [CG]2 | %11
 A,2 [CG]2 [CG]2 | D,2 [A,DF]2 [A,DF]2 | F,2 [A,DF]2 [A,DF]2 | D,2 [A,DF]2 [A,DF]2 | %15
 F,2 [A,DF]2 [A,DF]2 | A,,2 [A,CG]2 [A,CG]2 | E,2 [A,CG]2 [A,CG]2 | A,,2 [A,CG]2 [A,CG]2 | %19
 A,2 [CG]2 A,,2 | __B,,2 [F,CE]2 [F,CE]2 | B,,2 [F,D]2 [F,D]2 | C,2 [A,EG]2 [A,EG]2 | %23
 D,2 [A,F]2 z2 | G,2 [B,E]2 z2 | A,,2 [F,A,D]2 z2 | A,,2 [G,A,]2 [G,A,C]2 | D,2 [A,DF]2 z2 | %28
 =A,4- A,2 | B,4- B,2 | C4- C2 | D2 z4 | G,2 z4 | A,,2 [F,A,D]2 z2 | A,,2 [G,A,]2 [G,A,]2 | %35
 D,2 [A,F]2 z2 | __B,,2 [F,CE]2 [F,CE]2 | B,,2 [F,D]2 [F,D]2 | C,2 [A,EG]2 [A,EG]2 | %39
 D,2 [A,F]2 z2 | G,2 [B,E]2 z2 | A,,2 [F,A,D]2 z2 | A,,2 [G,A,]2 [G,A,C]2 | D,2 [A,DF]2 z2 | %44
 =A,4- A,2 | B,4- B,2 | C4- C2 | D2 z4 | G,2 z4 | A,,2 [F,A,D]2 z2 | A,,2 [G,A,]2 [G,A,]2 | %51
 D,2 [A,F]2 z2 | A,,2 [G,A,C]2 [G,A,C]2 | [G,A,C]2 [G,A,C]2 [G,A,C]2 | D,2 [A,D]2 [A,D]2 | %55
 A,,2 [A,DF]2 [A,DF]2 | E,2 [A,CG]2 [A,CG]2 | A,,2 [A,EG]2 [A,EG]2 | D,2 [A,DF]2 [A,DF]2 | %59
 F,2 [A,DF]2 [A,DF]2 | C,2 [G,A,]2 [G,A,]2 | A,,2 [G,A,]2 [G,A,C]2 | D,2 [A,D]2 [A,D]2 | %63
 _C,2 [A,DF]2 [A,DF]2 | C,2 [A,CF]2 [A,CF]2 | C,,2 [=G,C=E]2 z2 | F,,2 z2 [F,C]2 | z2 z4 | %68
 C,2 [G,A,]2 [G,A,]2 | A,,2 [G,A,C]2 [G,A,C]2 | D,2 [A,D]2 [A,D]2 | A,,2 [A,DF]2 [A,DF]2 | %72
 E,2 [A,CG]2 [A,CG]2 | A,,2 [A,EG]2 [A,EG]2 | D,2 [A,DF]2 [A,DF]2 | F,2 [A,DF]2 [A,DF]2 | %76
 C,2- [C,-G,A,]2 [C,G,A,]2 | A,,2 [G,A,C]2 [G,A,C]2 | _C,2 [F,A,E]2 [F,A,E]2 | %79
 B,,2 [F,A,=D]2 [F,A,D]2 | E,2 [D=G]2 [DG]2 | z2 [DG]2 [DG]2 | A,2- [A,CG]2 z2 | z2 z4 | z2 z4 | %85
 z2 z4 | z2 z4 | z2 z4 | z2 z4 | z2 z4 | z2 z4 | z2 z4 | D,,2 [A,DF]2 [A,DF]2 | %93
 F,2 [A,DF]2 [A,DF]2 | D,2 [A,DF]2 [A,DF]2 | F,2 [A,DF]2 [A,DF]2 | A,,2 [A,CG]2 [A,CG]2 | %97
 E,2 [A,CG]2 [A,CG]2 | A,,2 [CG]2 [CG]2 | A,2 [CG]2 [CG]2 | D,2 [A,DF]2 [A,DF]2 | %101
 F,2 [A,DF]2 [A,DF]2 | D,2 [A,DF]2 [A,DF]2 | F,2 [A,DF]2 [A,DF]2 | A,,2 [A,CG]2 [A,CG]2 | %105
 E,2 [A,CG]2 [A,CG]2 | A,,2 [A,CG]2 [A,CG]2 | A,2 [CG]2 A,,2 | __B,,2 [F,CE]2 [F,CE]2 | %109
 B,,2 [F,D]2 [F,D]2 | C,2 [A,EG]2 [A,EG]2 | D,2 [A,F]2 z2 | G,2 [B,E]2 z2 | A,,2 [F,A,D]2 z2 | %114
 A,,2 [G,A,]2 [G,A,C]2 | D,2 [A,DF]2 z2 | =A,4- A,2 | B,4- B,2 | C4- C2 | D2 z4 | G,2 z4 | %121
 A,,2 [F,A,D]2 z2 | A,,2 [G,A,]2 [G,A,]2 | D,2 [A,F]2 z2 | __B,,2 [F,CE]2 [F,CE]2 | %125
 B,,2 [F,D]2 [F,D]2 | C,2 [A,EG]2 [A,EG]2 | D,2 [A,F]2 z2 | G,2 [B,E]2 z2 | A,,2 [F,A,D]2 z2 | %130
 A,,2 [G,A,]2 [G,A,C]2 | D,2 [A,DF]2 z2 | =A,4- A,2 | B,4- B,2 | C4- C2 | D2 z4 | G,,2 [DEB]2 z2 | %137
 z2 z4 | A,,2 [G,A,]2 [G,A,]2 | D,,2 [F,A,F]2 z2 |] %140

